X: 1
T: Donna's
M: 9/8
L: 1/8
R: slip jig
K: Fmaj
|: A2F F2E F2c | B2G G2F G2A | F2D D2C D2F |1 E2F GFE FG^G :|2 E2F GFE FGA |]
[| B2B B2A Bcd | c2A A2G A2c | B2B B2A Bcd | c2c gfe fdc | 
A2F F2E F2c | B2G G2F G2A | F2D D2C D2F |1 E2F GFE FG^G |]
